packages/core/src/svgs/tokens/mono/AAG.svg

<svg width="24" height="24" viewBox="0 0 24 24" fill="none" xmlns="http://www.w3.org/2000/svg">
<path fill-rule="evenodd" clip-rule="evenodd" d="M12 21.4117C14.4961 21.4117 16.89 20.4202 18.6551 18.6551C20.4202 16.89 21.4117 14.4961 21.4117 12C21.4117 9.50377 20.4202 7.10991 18.6551 5.34487C16.89 3.57982 14.4961 2.58823 12 2.58823C9.50377 2.58823 7.10991 3.57982 5.34487 5.34487C3.57982 7.10991 2.58823 9.50377 2.58823 12C2.58823 14.4961 3.57982 16.89 5.34487 18.6551C7.10991 20.4202 9.50377 21.4117 12 21.4117ZM12 22C14.6522 22 17.1957 20.9464 19.071 19.071C20.9464 17.1957 22 14.6522 22 12C22 9.34785 20.9464 6.80429 19.071 4.92892C17.1957 3.05357 14.6522 2 12 2C9.34785 2 6.80429 3.05357 4.92892 4.92892C3.05357 6.80429 2 9.34785 2 12C2 14.6522 3.05357 17.1957 4.92892 19.071C6.80429 20.9464 9.34785 22 12 22Z" fill="white"/>
<path d="M12.0004 4.94108C10.4532 4.94108 9.02384 5.41167 7.85914 6.25873L7.58854 6.4705L7.00031 6.11756L7.52973 5.79991C9.01275 4.7337 10.8285 4.23353 12.6482 4.3899C14.4681 4.54627 16.1718 5.34885 17.4513 6.65243C18.7306 7.95599 19.5012 9.67443 19.6235 11.4969C19.7458 13.3192 19.2117 15.1254 18.1179 16.5881L17.665 16.247C18.5794 15.0206 19.069 13.5295 19.0591 11.9999C19.0591 8.08814 15.9121 4.94108 12.0004 4.94108ZM6.31207 7.78814C5.4356 8.96461 4.94149 10.4234 4.94149 11.9999C4.94149 15.9117 8.08855 19.0587 12.0004 19.0587C13.5767 19.0587 15.0297 18.5646 16.2062 17.694L16.5473 18.1528C15.0736 19.2433 13.2572 19.768 11.429 19.6313C9.60073 19.4947 7.88242 18.7058 6.58713 17.4085C5.29184 16.111 4.50579 14.3915 4.37215 12.563C4.23854 10.7345 4.76624 8.91892 5.85913 7.44697L6.31207 7.78814Z" fill="white"/>
<path fill-rule="evenodd" clip-rule="evenodd" d="M6.70602 7.29401C6.86202 7.29401 7.01165 7.23204 7.12196 7.12171C7.23228 7.0114 7.29425 6.86178 7.29425 6.70578C7.29425 6.54976 7.23228 6.40014 7.12196 6.28983C7.01165 6.17951 6.86202 6.11754 6.70602 6.11754C6.55 6.11754 6.40038 6.17951 6.29007 6.28983C6.17976 6.40014 6.11779 6.54976 6.11779 6.70578C6.11779 6.86178 6.17976 7.0114 6.29007 7.12171C6.40038 7.23204 6.55 7.29401 6.70602 7.29401ZM6.70602 7.88224C7.01804 7.88224 7.31727 7.75829 7.53791 7.53766C7.75853 7.31703 7.88249 7.0178 7.88249 6.70578C7.88249 6.39376 7.75853 6.09451 7.53791 5.87389C7.31727 5.65325 7.01804 5.5293 6.70602 5.5293C6.394 5.5293 6.09476 5.65325 5.87413 5.87389C5.6535 6.09451 5.52954 6.39376 5.52954 6.70578C5.52954 7.0178 5.6535 7.31703 5.87413 7.53766C6.09476 7.75829 6.394 7.88224 6.70602 7.88224ZM17.2942 17.8823C17.4503 17.8823 17.5999 17.8202 17.7102 17.71C17.8205 17.5996 17.8825 17.45 17.8825 17.294C17.8825 17.1379 17.8205 16.9883 17.7102 16.8781C17.5999 16.7677 17.4503 16.7057 17.2942 16.7057C17.1382 16.7057 16.9886 16.7677 16.8783 16.8781C16.768 16.9883 16.706 17.1379 16.706 17.294C16.706 17.45 16.768 17.5996 16.8783 17.71C16.9886 17.8202 17.1382 17.8823 17.2942 17.8823ZM17.2942 18.4705C17.6062 18.4705 17.9056 18.3466 18.1261 18.1259C18.3468 17.9053 18.4708 17.606 18.4708 17.294C18.4708 16.982 18.3468 16.6828 18.1261 16.4621C17.9056 16.2415 17.6062 16.1176 17.2942 16.1176C16.9822 16.1176 16.683 16.2415 16.4623 16.4621C16.2418 16.6828 16.1178 16.982 16.1178 17.294C16.1178 17.606 16.2418 17.9053 16.4623 18.1259C16.683 18.3466 16.9822 18.4705 17.2942 18.4705Z" fill="white"/>
<path d="M6.51212 6.929L4.84741 5.2643L5.25918 4.85254L6.92976 6.51136L6.518 6.929H6.51212ZM18.7356 19.1525L17.071 17.4878L17.4828 17.0702L19.1533 18.7349L18.7356 19.1525ZM13.7651 6.82312V8.92312L16.118 7.65841V14.3055L13.1768 12.8878V9.90553L10.8238 11.1702V16.5819L7.88271 15.1643V9.67014L13.7651 6.82312ZM13.1768 9.23488V7.76429L8.47094 10.0407V14.7937L10.2357 15.6466V10.8231L13.1768 9.23488ZM13.7651 9.58779V12.5172L15.5298 13.3701V8.64665L13.7651 9.59369V9.58779Z" fill="white"/>
</svg>

<svg xmlns="http://www.w3.org/2000/svg" width="24" height="24" fill="none" viewBox="0 0 24 24">
    <path fill="#fff" fill-rule="evenodd" d="M12 21.412a9.412 9.412 0 1 0 0-18.824 9.412 9.412 0 0 0 0 18.824M12 22a10 10 0 1 0 0-20 10 10 0 0 0 0 20" clip-rule="evenodd"/>
    <path fill="#fff" d="M12 4.941c-1.547 0-2.976.47-4.14 1.318l-.271.212L7 6.118l.53-.318a7.647 7.647 0 0 1 10.588 10.788l-.453-.341A7.03 7.03 0 0 0 19.059 12 7.04 7.04 0 0 0 12 4.94M6.312 7.788c-.876 1.177-1.37 2.635-1.37 4.212A7.04 7.04 0 0 0 12 19.059a7.02 7.02 0 0 0 4.206-1.365l.341.459A7.646 7.646 0 0 1 5.86 7.447z"/>
    <path fill="#fff" fill-rule="evenodd" d="M6.706 7.294a.588.588 0 1 0 0-1.176.588.588 0 0 0 0 1.176m0 .588a1.176 1.176 0 1 0 0-2.353 1.176 1.176 0 0 0 0 2.353m10.588 10a.589.589 0 1 0 0-1.177.589.589 0 0 0 0 1.177m0 .588a1.176 1.176 0 1 0 0-2.352 1.176 1.176 0 0 0 0 2.353" clip-rule="evenodd"/>
    <path fill="#fff" d="M6.512 6.929 4.847 5.264l.412-.411L6.93 6.51l-.411.418zm12.224 12.224-1.665-1.665.412-.418 1.67 1.665zm-4.97-12.33v2.1l2.352-1.265v6.648l-2.941-1.418V9.906l-2.353 1.264v5.412l-2.941-1.418V9.67zm-.59 2.412v-1.47L8.472 10.04v4.753l1.765.853v-4.824zm.59.353v2.93l1.764.852V8.647l-1.765.947z"/>
</svg>
